!!!!SEGMENT: pl-wnifc--6485-n--002_osmanski-wojciech--marsz-zuaw-no-4.krn
!!!cenid: 18xx:3959
!!!COM: Osmański, Wojciech
!!!COM-rismID: pe30090329
!!!CDT: 1834-1908
!!!CNT:
!!!OTL: Marsz Żuaw No. 4
!!!PDT:
!!!AGN:
!!!SMS-siglum: PL-Wnifc
!!!SMS-shelfmark: 6485/n
!!!SMS-shelfwork: 002 W
!!!SMS-variant:
!!!SMS-altvar:
!!!NIFC-rismSourceID: 1001184777
!!!NIFC-islandoraID: nifc:212778
!!!URL-pdf-islandora: https://repozytorium.nifc.pl/islandora/object/nifc:212778/datastream/PDF/view
!!!URL-scan: https://polish.musicsources.pl/pl/lokalizacje/galeria/druki-muzyczne/16862 @EN{Scan on Polish Music Sources Website} @PL{Skany w portalu Dziedzictwo Muzyki Polskiej w otwartym dostępie}
!!!ONB-nifc: UWAGA: str. 8-11 (skany 0005-0006)
!!!AIN: 3 piano
!!!key: G
**kern	**fing	**kern	**fing	**dynam	**kern	**fing	**dynam
*part3	*part2	*part2	*part2	*part2	*part1	*part1	*part1
*staff3	*	*staff2	*	*	*staff1	*	*
*Ipiano	*	*Ipiano	*	*	*Ipiano	*	*
*I"Piano	*	*I"Piano	*	*	*I"Piano	*	*
*ICpiano	*	*ICpiano	*	*	*ICpiano	*	*
*ICklav	*	*ICklav	*	*	*ICklav	*	*
*IG	*	*	*	*	*	*	*
*clefF4	*	*clefG2	*	*	*clefG2	*	*
*k[]	*	*k[]	*	*	*k[]	*	*
*G:	*	*G:	*	*	*G:	*	*
*M2/4	*	*M2/4	*	*	*M2/4	*	*
!	!	!	!	!	!LO:TX:a:t=Sposob latwiejszy	!	!
*	*	*Xtuplet	*	*	*	*	*
8r	.	24G/LL	4	.	16G/LL	1	p
.	.	24G/	3	.	.	.	.
.	.	.	.	.	16G/JJ	1	.
.	.	24G/JJ	2	.	.	.	.
=1	=1	=1	=1	=1	=1	=1	=1
*	*	*tuplet	*	*	*	*	*
8CC:/ 8EE: 8GG: 8C:	.	8G^>/L 8c 8e	.	.	8G^>/L 8c 8e	.	.
!	!	!LO:TUP:b	!	!	!	!	!
8r	.	24G'>/L	.	.	16G'>>/L	.	.
.	.	24G'>/	.	.	.	.	.
.	.	.	.	.	16G'>>/JJ	.	.
.	.	24G'>/JJ	.	.	.	.	.
8CC:/ 8EE: 8GG: 8C:	.	8G^>/L 8c 8e	.	.	8G^>>/L 8c 8e	.	.
!	!	!LO:TUP:b	!	!	!	!	!
8r	.	24G'>/L	.	.	16G'>>/L	.	.
.	.	24G'>/	.	.	.	.	.
.	.	.	.	.	16G'>>/JJ	.	.
.	.	24G'>/JJ	.	.	.	.	.
=2	=2	=2	=2	=2	=2	=2	=2
*	*	*Xtuplet	*	*	*	*	*
8CC:/ 8EE: 8GG: 8C:	.	8G^>/L 8c 8e	.	.	8G^>/L 8c 8e	.	.
8r	.	24G'>/L	.	.	16G/L	.	.
.	.	24G'>/	.	.	.	.	.
.	.	.	.	.	16G'>>/JJ	.	.
.	.	24G'>/JJ	.	.	.	.	.
8CC:/ 8EE: 8GG: 8C:	.	8G'>/L 8c 8e	.	.	8G'>/L 8c 8e	.	.
8r	.	8G'>/J 8f	.	.	8G'>>/J 8f	.	.
=3	=3	=3	=3	=3	=3	=3	=3
8GGG:/ 8BBB: 8DD: 8GG:	.	8G^>/L 8B 8d	.	.	8G^>/L 8B 8d	.	.
8r	.	24G'>/L	.	.	16G'>/L	.	.
.	.	24G'>/	.	.	.	.	.
.	.	.	.	.	16G'>/JJ	.	.
.	.	24G'>/JJ	.	.	.	.	.
8GGG:/ 8BBB: 8DD: 8GG:	.	8G'>/L 8B 8d	.	.	8G'>/L 8B 8d	.	.
8r	.	8G'>/J 8e	.	.	8G'>/J 8e	.	.
!LO:LB:g=original	!	!LO:LB:g=original	!	!	!LO:LB:g=original	!	!
=4	=4	=4	=4	=4	=4	=4	=4
8CC:/ 8EE: 8GG: 8C:	.	8A^>/L 8c	.	.	8A^>/L 8c	.	.
8r	.	8G^>/J 8c 8e	.	.	8G^>/J 8c 8e	.	.
8CC:/ 8EE: 8GG: 8C:	.	8G^>/L 8g	.	.	8G^>/L 8g	.	.
8r	.	24G'>/L	.	.	16G'>/L	.	.
.	.	24G'>/	.	.	.	.	.
.	.	.	.	.	16G'>/JJ	.	.
.	.	24G'>/JJ	.	.	.	.	.
=5	=5	=5	=5	=5	=5	=5	=5
8CC:/ 8EE: 8GG: 8C:	.	8G^>/L 8c 8e	.	.	8G^>/L 8c 8e	.	.
8r	.	24G'>/L	.	.	16G'>/L	.	.
.	.	24G'>/	.	.	.	.	.
.	.	.	.	.	16G'>/JJ	.	.
.	.	24G'>/JJ	.	.	.	.	.
8CC:/ 8EE: 8GG: 8C:	.	8G^>/L 8c 8e	.	.	8G^>/L 8c 8e	.	.
8r	.	24G'>/L	.	.	16G'>/L	.	.
.	.	24G'>/	.	.	.	.	.
.	.	.	.	.	16G'>/JJ	.	.
.	.	24G'>/JJ	.	.	.	.	.
=6	=6	=6	=6	=6	=6	=6	=6
8CC:/ 8EE: 8GG: 8C:	.	8G^>/L 8c 8e	.	.	8G^>/L 8c 8e	.	.
8r	.	24G'>/L	.	.	16G'>/L	.	.
.	.	24G'>/	.	.	.	.	.
.	.	.	.	.	16G'>/JJ	.	.
.	.	24G'>/JJ	.	.	.	.	.
8CC:/ 8EE: 8GG: 8C:	.	8G^>/L 8c 8e	.	.	8G^>/L 8c 8e	.	.
8r	.	8G^>/J 8f	.	.	8G^>/J 8f	.	.
=7	=7	=7	=7	=7	=7	=7	=7
8GGG:/ 8BBB: 8DD: 8GG:	.	8G^>/L 8B 8d	.	.	8G^>/L 8B 8d	.	.
8r	.	24G'>/L	.	.	16G'>/L	.	.
.	.	24G'>/	.	.	.	.	.
.	.	.	.	.	16G'>/JJ	.	.
.	.	24G'>/JJ	.	.	.	.	.
8GGG:/ 8BBB: 8DD: 8GG:	.	8G'>/L 8B 8d	.	.	8G'>/L 8B 8d	.	.
8r	.	8G'>/J 8e	.	.	8G'>/J 8e	.	.
!LO:LB:g=original	!	!LO:LB:g=original	!	!	!LO:LB:g=original	!	!
=8	=8	=8	=8	=8	=8	=8	=8
8CC:/ 8EE: 8GG: 8C:	.	8G^>/L 8c	.	.	8G^>/L 8c	.	.
8r	.	8G^>/J 8e	.	.	8G^>/J 8e	.	.
8CC:/ 8EE: 8GG: 8C:	.	8G^>/L 8c	.	.	8G^>/L 8c	.	.
8r	.	24c'>/L	.	.	16c'>/L	.	.
.	.	24c'>/	.	.	.	.	.
.	.	.	.	.	16c'>/JJ	.	.
.	.	24c'>/JJ	.	.	.	.	.
=9||	=9||	=9||	=9||	=9||	=9||	=9||	=9||
*k[b-]	*	*k[b-]	*	*	*k[b-]	*	*
8FF:/ 8AA: 8C: 8F:	.	8c^>/L 8f 8a	.	.	8c^>/L 8f 8a	.	f
8r	.	24c'>/L	.	.	16c'>/L	.	.
.	.	24c'>/	.	.	.	.	.
.	.	.	.	.	16c'>/JJ	.	.
.	.	24c'>/JJ	.	.	.	.	.
8FF:/ 8AA: 8C: 8F:	.	8c^>/L 8f 8a	.	.	8c^>/L 8f 8a	.	.
8r	.	24c'>/L	.	.	16c/L	.	.
.	.	24c'>/	.	.	.	.	.
.	.	.	.	.	16c'>/JJ	.	.
.	.	24c'>/JJ	.	.	.	.	.
=10	=10	=10	=10	=10	=10	=10	=10
8FF:/ 8AA: 8C: 8F:	.	8c^>/L 8f 8a	.	.	8c^>/L 8f 8a	.	.
8r	.	24c'>/L	.	.	16c'>/L	.	.
.	.	24c'>/	.	.	.	.	.
.	.	.	.	.	16c'>/JJ	.	.
.	.	24c'>/JJ	.	.	.	.	.
8FF:/ 8AA: 8C: 8F:	.	8c^>/L 8f 8a	.	.	8c^>/L 8f 8a	.	.
8r	.	8c^>/J 8b-	.	.	8c^>/J 8b-	.	.
=11	=11	=11	=11	=11	=11	=11	=11
8CC:/ 8EE: 8GG: 8C:	.	8c^>/L 8f 8a	.	.	8c^>/L 8f 8a	.	.
8r	.	24c'>/L	.	.	16c'>/L	.	.
.	.	24c'>/	.	.	.	.	.
.	.	.	.	.	16c'>/JJ	.	.
.	.	24c'>/JJ	.	.	.	.	.
8CC:/ 8EE: 8GG: 8C:	.	8c'>/L 8e 8g	.	.	8c'>/L 8e 8g	.	.
8r	.	8c'>/J 8a	.	.	8c'>/J 8a	.	.
=12	=12	=12	=12	=12	=12	=12	=12
8FF:/ 8AA: 8C: 8F:	.	8c^>/L 8f	.	<	8c^>/L 8f	.	.
8r	.	8c^>/J 8f 8a	.	.	8c^>/J 8f 8a	.	.
8FF:/ 8AA: 8C: 8F:	.	8c^>/L 8cc	.	[	8c^>/L 8cc	.	.
8r	.	24c'>/L	.	.	16c/L	.	.
.	.	24c'>/	.	.	.	.	.
.	.	.	.	.	16c/JJ	.	.
.	.	24c'>/JJ	.	.	.	.	.
!LO:LB:g=original	!	!LO:LB:g=original	!	!	!LO:LB:g=original	!	!
=13	=13	=13	=13	=13	=13	=13	=13
8FF:/ 8AA: 8C: 8F:	.	8c^>/L 8f 8a	.	.	8c^>/L 8f 8a	.	.
8r	.	24c'>/L	.	.	16c/L	.	.
.	.	24c'>/	.	.	.	.	.
.	.	.	.	.	16c/JJ	.	.
.	.	24c'>/JJ	.	.	.	.	.
8FF:/ 8AA: 8C: 8F:	.	8c^>/L 8f 8a	.	.	8c^>/L 8f 8a	.	.
8r	.	24c'>/L	.	.	16c'>/L	.	.
.	.	24c'>/	.	.	.	.	.
.	.	.	.	.	16c'>/JJ	.	.
.	.	24c'>/JJ	.	.	.	.	.
=14	=14	=14	=14	=14	=14	=14	=14
8FF:/ 8AA: 8C: 8F:	.	8c^>/L 8f 8a	.	.	8c^>/L 8f 8a	.	.
8r	.	24c'>/L	.	.	16c'>/L	.	.
.	.	24c'>/	.	.	.	.	.
.	.	.	.	.	16c'>/JJ	.	.
.	.	24c'>/JJ	.	.	.	.	.
8FF:/ 8AA: 8C: 8F:	.	8c^>/L 8f 8a	.	.	8c^>/L 8f 8a	.	.
8r	.	8c^>/J 8b-	.	.	8c^>/J 8b-	.	.
=15	=15	=15	=15	=15	=15	=15	=15
8CC:/ 8EE: 8GG: 8C:	.	8c^>/L 8f 8a	.	.	8c^>/L 8f 8a	.	.
8r	.	24c'>/L	.	.	16c'>/L	.	.
.	.	24c'>/	.	.	.	.	.
.	.	.	.	.	16c'>/JJ	.	.
.	.	24c'>/JJ	.	.	.	.	.
8CC:/ 8EE: 8GG: 8C:	.	8c'>/L 8e 8g	.	.	8c'>/L 8e 8g	.	.
8r	.	8c'>/J 8a	.	.	8c'>/J 8a	.	.
=16	=16	=16	=16	=16	=16	=16	=16
8FF'>/L 8AA 8C 8F	.	8c^>/L 8f	.	.	8c^>/L 8f	.	.
8FF'>/ 8AA 8C 8F	.	8c^>/ 8a	.	.	8c^>/ 8a	.	.
8FF'>/J 8AA 8C 8F	.	8c^>/J 8f	.	.	8c^>/J 8f	.	.
8r	.	8r	.	.	8r	.	.
!LO:LB:g=original	!	!LO:LB:g=original	!	!	!LO:LB:g=original	!	!
=17||	=17||	=17||	=17||	=17||	=17||	=17||	=17||
*	*	*ped	*	*	*	*	*
4BBB-/ 4BB-	.	[2f^>/ [2b- [<2ff	.	ff >	2ryy	.	.
8.F\L 8.B- 8.d	.	.	.	.	.	.	.
16F\Jk 16B- 16d	.	.	.	.	.	.	.
=18	=18	=18	=18	=18	=18	=18	=18
*	*	*tuplet	*	*	*	*	*
!	!	!LO:TUP:b	!	!	!	!	!
8F\ 8B- 8d	.	12f/L] 12b-] 12ff]	.	.	2ryy	.	.
.	.	12dd/	.	.	.	.	.
8r	.	.	.	.	.	.	.
.	.	12b-/J	.	.	.	.	.
!	!	!LO:TUP:b	!	!	!	!	!
8F\ 8B- 8d	.	12f/L	.	]	.	.	.
.	.	12b-/	.	.	.	.	.
8r	.	.	.	.	.	.	.
.	.	12dd/J	.	.	.	.	.
*	*	*Xped	*	*	*	*	*
=19	=19	=19	=19	=19	=19	=19	=19
*	*	*ped	*	*	*	*	*
8FF:/ 8AA: 8C: 8F:	.	[>2f^>/ [>2a [>2cc	.	>	2ryy	.	.
8r	.	.	.	.	.	.	.
8.F\L 8.A 8.c	.	.	.	.	.	.	.
16F\Jk 16A 16c	.	.	.	.	.	.	.
=20	=20	=20	=20	=20	=20	=20	=20
*	*	*Xtuplet	*	*	*	*	*
8F\ 8A 8c	.	12f\L] 12a] 12cc]	.	.	2ryy	.	.
.	.	12a'>\	.	]	.	.	.
8r	.	.	.	.	.	.	.
.	.	12cc'>\J	.	.	.	.	.
8F\ 8A 8c	.	12ff'>\L	.	.	.	.	.
.	.	12cc'>\	.	.	.	.	.
8r	.	.	.	.	.	.	.
.	.	12a'>\J	.	.	.	.	.
*	*	*Xped	*	*	*	*	*
=21	=21	=21	=21	=21	=21	=21	=21
*	*	*ped	*	*	*	*	*
8CC/ 8C	.	[>2g^>\ [2gg	.	ff >	2ryy	.	.
8r	.	.	.	.	.	.	.
8.G\L 8.B- 8.c 8.e	.	.	.	.	.	.	.
16G\Jk 16B- 16c 16e	.	.	.	.	.	.	.
!LO:LB:g=original	!	!LO:LB:g=original	!	!	!LO:LB:g=original	!	!
=22	=22	=22	=22	=22	=22	=22	=22
8G\ 8B- 8c 8e	.	12g'>\L] 12gg]	.	.	2ryy	.	.
.	.	12g'>\ 12gg	.	.	.	.	.
8r	.	.	.	.	.	.	.
.	.	12a'>\J 12aa	.	.	.	.	.
8G\ 8B- 8c 8e	.	12b-'>\L 12bb-	.	]	.	.	.
.	.	12a'>\ 12aa	.	.	.	.	.
8r	.	.	.	.	.	.	.
.	.	12g'>\J 12gg	.	.	.	.	.
*	*	*Xped	*	*	*	*	*
=23	=23	=23	=23	=23	=23	=23	=23
*	*	*ped	*	*	*	*	*
8FF/ 8F	.	[>2a^>\ [2cc [2ff	.	ff >	2ryy	.	.
8r	.	.	.	.	.	.	.
8.F\L 8.A 8.c	.	.	.	.	.	.	.
16F\Jk 16A 16c	.	.	.	.	.	.	.
=24	=24	=24	=24	=24	=24	=24	=24
8F\ 8A 8c	.	12a\L] 12cc] 12ff]	.	.	2ryy	.	.
.	.	12a'>\	.	.	.	.	.
8r	.	.	.	.	.	.	.
.	.	12cc'>\J	.	.	.	.	.
8F\ 8A 8c	.	12ff'>\L	.	]	.	.	.
.	.	12cc'>\	.	.	.	.	.
8r	.	.	.	.	.	.	.
.	.	12a'>\J	.	.	.	.	.
=25	=25	=25	=25	=25	=25	=25	=25
*	*	*ped	*	*	*	*	*
4BBB-/ 4BB-	.	[>2f^>\ [2b- [2ff	.	ff >	2ryy	.	.
8.F\L 8.B- 8.d	.	.	.	.	.	.	.
16F\Jk 16B- 16d	.	.	.	.	.	.	.
=26	=26	=26	=26	=26	=26	=26	=26
8F\ 8B- 8d	.	12f\L] 12b-] 12ff]	.	.	2ryy	.	.
.	.	12dd'>\	.	.	.	.	.
8r	.	.	.	.	.	.	.
.	.	12b-'>\J	.	.	.	.	.
8F\ 8B- 8d	.	12f'>\L	.	]	.	.	.
.	.	12b-'>\	.	.	.	.	.
8r	.	.	.	.	.	.	.
.	.	12dd'>\J	.	.	.	.	.
*	*	*Xped	*	*	*	*	*
!LO:LB:g=original	!	!LO:LB:g=original	!	!	!LO:LB:g=original	!	!
=27	=27	=27	=27	=27	=27	=27	=27
*	*	*ped	*	*	*	*	*
8FF:/ 8AA: 8C: 8F:	.	2f^>/ 2a 2cc	.	ff >	2ryy	.	.
8r	.	.	.	.	.	.	.
8.F\L 8.A 8.c	.	.	.	.	.	.	.
16F\Jk 16A 16c	.	.	.	.	.	.	.
=28	=28	=28	=28	=28	=28	=28	=28
8F\ 8A 8c	.	12f\L 12a 12cc	.	.	2ryy	.	.
.	.	12a'>\	.	.	.	.	.
8r	.	.	.	.	.	.	.
.	.	12cc'>\J	.	]	.	.	.
8F\ 8A 8c	.	12ff'>\L	.	.	.	.	.
.	.	12cc'>\	.	.	.	.	.
8r	.	.	.	.	.	.	.
.	.	12a'>\J	.	.	.	.	.
*	*	*Xped	*	*	*	*	*
=29	=29	=29	=29	=29	=29	=29	=29
8CC:/ 8EE: 8GG: 8C:	.	12g'>\L 12gg	.	.	2ryy	.	.
!	!	!	!	!LO:HP:t=cre---	!	!	!
.	.	12cc'>\ 12ccc	.	<	.	.	.
8r	.	.	.	.	.	.	.
.	.	12cc'>\J 12ccc	.	.	.	.	.
8G\ 8B- 8c 8e	.	12cc'>\L 12ccc	.	.	.	.	.
.	.	12cc#X'>\ 12ccc#X	.	.	.	.	.
8r	.	.	.	.	.	.	.
.	.	12cc#'>\J 12ccc#	.	f	.	.	.
=30	=30	=30	=30	=30	=30	=30	=30
8G\ 8B- 8c 8e	.	12cc#X'>\L 12ccc#X	.	.	2ryy	.	.
.	.	12dd'>\ 12ddd	.	.	.	.	.
8r	.	.	.	.	.	.	.
.	.	12dd'>\J 12ddd	.	.	.	.	.
8G\ 8B- 8c 8e	.	12dd'>\L 12ddd	.	.	.	.	.
.	.	12ee'>\ 12eee	.	.	.	.	.
8r	.	.	.	.	.	.	.
.	.	12ee'>\J 12eee	.	.	.	.	.
=31	=31	=31	=31	=31	=31	=31	=31
8F\ 8A 8c	.	8ff\ 8fff	.	ff	2ryy	.	.
8r	.	8r	.	.	.	.	.
8FF/ 8AA 8C 8F	.	8a'>\L 8cc 8ff	.	.	.	.	.
8r	.	16r	.	.	.	.	.
.	.	16a'>\Jk 16cc 16ff	.	.	.	.	.
=32	=32	=32	=32	=32	=32	=32	=32
8FF/ 8AA 8C 8F	.	8a^>\ 8cc 8ff	.	.	2ryy	.	.
8r	.	8r	.	.	.	.	.
4r	.	4r	.	.	.	.	.
!LO:PB:g=original	!	!LO:PB:g=original	!	!	!LO:PB:g=original	!	!
=33||	=33||	=33||	=33||	=33||	=33||	=33||	=33||
*k[b-e-]	*	*k[b-e-]	*	*	*k[b-e-]	*	*
*M2/4	*	*M2/4	*	*	*M2/4	*	*
!	!	!LO:TX:a:t=Trio.	!	!	!	!	!
8BBB-'>:/ 8DD: 8FF: 8BB-:^^	.	8d/ 8f 8b-^^	.	ff >	2ryy	.	.
8r	.	8r	.	.	.	.	.
8BB-\ 8B-	.	8d/ 8f 8b-	.	.	.	.	.
8r	.	8r	.	.	.	.	.
=34	=34	=34	=34	=34	=34	=34	=34
8FF/ 8F	.	8d/ 8f 8b-	.	.	2ryy	.	.
8r	.	8r	.	]	.	.	.
8DD/ 8D	.	8d/ 8f 8b-	.	.	.	.	.
8r	.	8r	.	.	.	.	.
=35||	=35||	=35||	=35||	=35||	=35||	=35||	=35||
8BBB-/ 8BB-	.	4f^>/ 4b- 4dd	.	ff	2ryy	.	.
8r	.	.	.	.	.	.	.
8F\L 8B- 8d	.	8cc\L	.	>	.	.	.
16r	.	16r	.	.	.	.	.
16F\Jk 16B- 16d	.	16b-\Jk	.	.	.	.	.
=36	=36	=36	=36	=36	=36	=36	=36
.	.	(8qcc/	.	.	.	.	.
8F\ 8B- 8d	.	4b-\)	.	.	2ryy	.	.
8r	.	.	.	.	.	.	.
8F\ 8B- 8d	.	8.a\L	.	]	.	.	.
8r	.	.	.	.	.	.	.
.	.	16b-\Jk	.	.	.	.	.
=37	=37	=37	=37	=37	=37	=37	=37
8FF/ 8AA 8C 8F	.	2f^>/ 2a 2cc	.	ff > ]]	2ryy	.	.
8r	.	.	.	.	.	.	.
8F\L 8A 8c	.	.	.	.	.	.	.
16r	.	.	.	.	.	.	.
16F\Jk 16A 16c	.	.	.	.	.	.	.
!LO:LB:g=original	!	!LO:LB:g=original	!	!	!LO:LB:g=original	!	!
=38	=38	=38	=38	=38	=38	=38	=38
*	*	*tuplet	*	*	*	*	*
!	!	!LO:TUP:a	!	!	!	!	!
8F\ 8A 8c	.	12f'>\L	.	.	2ryy	.	.
.	.	12a'>\	.	.	.	.	.
8r	.	.	.	.	.	.	.
.	.	12cc'>\J	.	.	.	.	.
8F\ 8A 8c	.	8f'>\ 8ff	.	.	.	.	.
8r	.	8r	.	.	.	.	.
=39	=39	=39	=39	=39	=39	=39	=39
8FF:/ 8AA: 8C: 8F:	.	4a^>\ 4cc 4ee-	.	ff	2ryy	.	.
8r	.	.	.	.	.	.	.
8F\L 8A 8c	.	8dd\L	.	.	.	.	.
16r	.	16r	.	.	.	.	.
16F\Jk 16A 16c	.	16cc\Jk	.	.	.	.	.
=40	=40	=40	=40	=40	=40	=40	=40
.	.	(8qdd/	.	.	.	.	.
8F\ 8A 8c	.	4cc\)	.	.	2ryy	.	.
8r	.	.	.	.	.	.	.
8F\ 8A 8c	.	8b-\L	.	.	.	.	.
8r	.	16r	.	.	.	.	.
.	.	16cc\Jk	.	.	.	.	.
=41	=41	=41	=41	=41	=41	=41	=41
8BBB-/ 8BB-	.	(2f^>\ 2b- 2dd	.	ff > ]]	2ryy	.	.
8r	.	.	.	.	.	.	.
8F\L 8B- 8d	.	.	.	.	.	.	.
!LO:TX:t=P:problem:LO:N:vis=8	!	!	!	!	!	!	!
16r	.	.	.	.	.	.	.
16F\Jk 16B- 16d	.	.	.	.	.	.	.
=42	=42	=42	=42	=42	=42	=42	=42
8F\ 8B- 8d	.	8b-\)	.	.	2ryy	.	.
8r	.	8r	.	.	.	.	.
!	!	!LO:TUP:a	!	!	!	!	!
8F\ 8B- 8d	.	12f'>\L	.	<	.	.	.
.	.	12b-'>\	.	.	.	.	.
8r	.	.	.	.	.	.	.
.	.	12dd'>\J	.	[[	.	.	.
=43	=43	=43	=43	=43	=43	=43	=43
8BBB-/ 8BB-	.	4f^>\ 4ff	.	ff >	2ryy	.	.
8r	.	.	.	.	.	.	.
8F\L 8B- 8d	.	8dd\L	.	.	.	.	.
16r	.	16r	.	]	.	.	.
16F\Jk 16B- 16d	.	16b-\Jk	.	.	.	.	.
!LO:LB:g=original	!	!LO:LB:g=original	!	!	!LO:LB:g=original	!	!
=44	=44	=44	=44	=44	=44	=44	=44
8F\ 8B- 8d	.	4b-\	.	.	2ryy	.	.
8r	.	.	.	.	.	.	.
8F\ 8B- 8d	.	8cc\L	.	.	.	.	.
8r	.	8dd\J	.	.	.	.	.
=45	=45	=45	=45	=45	=45	=45	=45
8EE-:/ 8GG: 8BB-: 8E-:	.	4.g^>\ 4.b- 4.ee-	.	.	2ryy	.	.
8r	.	.	.	.	.	.	.
8E-\L 8G 8B- 8e-	.	.	.	.	.	.	.
16r	.	16r	.	.	.	.	.
16E-\Jk 16G 16B- 16e-	.	16g\ 16gg	.	.	.	.	.
=46	=46	=46	=46	=46	=46	=46	=46
8E-\ 8G 8B- 8e-	.	4b-^>\ 4bb-	.	.	2ryy	.	.
8r	.	.	.	.	.	.	.
8E-\ 8G 8B- 8e-	.	8a\L 8aa	.	.	.	.	.
8r	.	8g\J 8gg	.	.	.	.	.
=47	=47	=47	=47	=47	=47	=47	=47
8FF/ 8AA 8C 8F	.	4f\ 4ff	.	.	2ryy	.	.
8r	.	.	.	.	.	.	.
8F\ 8A 8c	.	8f\L 8ff	.	.	.	.	.
8r	.	16r	.	.	.	.	.
.	.	16f\Jk 16ff	.	.	.	.	.
=48	=48	=48	=48	=48	=48	=48	=48
*Xtuplet	*	*	*	*	*	*	*
!	!	!LO:TUP:a	!	!	!	!	!
12FF'>/L 12F	.	12f\L 12ff	.	ff	2ryy	.	.
12GG'>/ 12G	.	12g\ 12gg	.	.	.	.	.
12FF'>/J 12F	.	12f\J 12ff	.	.	.	.	.
!	!	!LO:TUP:a	!	!	!	!	!
12EE-'>/L 12E-	.	12e-\L 12ee-	.	.	.	.	.
12DD'>/ 12D	.	12d\ 12dd	.	.	.	.	.
12CC'>/J 12C	.	12c\J 12cc	.	.	.	.	.
=49	=49	=49	=49	=49	=49	=49	=49
8BBB-/ 8BB-	.	8B-/ 8b-	.	.	2ryy	.	.
8r	.	8r	.	.	.	.	.
8BB-\ 8D 8F 8B-	.	8.b-\L 8.dd 8.bb-	.	ff	.	.	.
8r	.	.	.	.	.	.	.
.	.	16b-\Jk 16dd 16bb-	.	.	.	.	.
=50	=50	=50	=50	=50	=50	=50	=50
8BB-\ 8D 8F 8B-	.	8b-\ 8dd 8bb-	.	.	2ryy	.	.
8r	.	8r	.	.	.	.	.
4r	.	8f^>/L 8a	.	.	.	.	.
.	.	8g^>/J 8b-	.	.	.	.	.
!LO:LB:g=original	!	!LO:LB:g=original	!	!	!LO:LB:g=original	!	!
=51!|:	=51!|:	=51!|:	=51!|:	=51!|:	=51!|:	=51!|:	=51!|:
8FF:/ 8AA: 8C: 8F:	.	8f^>/L 8a 8cc	.	ff	2ryy	.	.
!	!	!LO:TUP:b	!	!	!	!	!
8r	.	24f'>/L	.	.	.	.	.
.	.	24f'>/	.	.	.	.	.
.	.	24f'>/JJ	.	.	.	.	.
8F\ 8A 8c	.	8f'>/L	.	.	.	.	.
8FF^>/ 8F	.	8f^>/J 8a 8cc	.	.	.	.	.
=52	=52	=52	=52	=52	=52	=52	=52
8BBB-^>/ 8BB-	.	8f^>/L 8a 8cc	.	.	2ryy	.	.
!	!	!LO:TUP:b	!	!	!	!	!
8r	.	24f'>/L	.	.	.	.	.
.	.	24f'>/	.	.	.	.	.
.	.	24f'>/JJ	.	.	.	.	.
8F\ 8B- 8d	.	8f'>/L	.	.	.	.	.
8r	.	8f^>/J 8b- 8dd	.	.	.	.	.
=53	=53	=53	=53	=53	=53	=53	=53
8FF^>/ 8AA 8C 8F	.	8a^>:\L 8cc: 8ee-:	.	.	2ryy	.	.
8r	.	8a'>\J 8cc	.	.	.	.	.
8F\ 8B- 8d	.	8f'>\L 8dd	.	.	.	.	.
8r	.	8f'>\J 8b-	.	.	.	.	.
=54	=54	=54	=54	=54	=54	=54	=54
8BBB-/ 8BB-	.	(4.f\ 4.ff	.	f >	2ryy	.	.
8r	.	.	.	.	.	.	.
8F\ 8B- 8d	.	.	.	.	.	.	.
8r	.	16ee-\LL	.	.	.	.	.
.	.	16dd\JJ)	.	]]	.	.	.
=55	=55	=55	=55	=55	=55	=55	=55
8FF:/ 8AA: 8C: 8F:	.	8f^>/L 8a 8cc	.	.	2ryy	.	.
!	!	!LO:TUP:b	!	!	!	!	!
8r	.	24f'>/L	.	.	.	.	.
.	.	24f'>/	.	.	.	.	.
.	.	24f'>/JJ	.	.	.	.	.
8F\ 8A 8c	.	8f/L	.	.	.	.	.
!LO:TX:t=P:problem:LO:N:vis=4	!	!	!	!	!	!	!
8FF^>/ 8F	.	8f^>/J 8a 8cc	.	.	.	.	.
!LO:LB:g=original	!	!LO:LB:g=original	!	!	!LO:LB:g=original	!	!
=56	=56	=56	=56	=56	=56	=56	=56
*	*	*Xtuplet	*	*	*	*	*
8BBB-^>/ 8BB-	.	8f^>/L 8b- 8dd	.	.	2ryy	.	.
8r	.	24f/L	.	.	.	.	.
.	.	24f/	.	.	.	.	.
.	.	24f/JJ	.	.	.	.	.
8F\ 8B- 8d	.	8f/L	.	.	.	.	.
8r	.	8f^>/J 8b- 8dd	.	.	.	.	.
=57	=57	=57	=57	=57	=57	=57	=57
8FF/ 8AA 8C 8F	.	8f/ 8a 8cc	.	ff	2ryy	.	.
8r	.	8r	.	.	.	.	.
8CC^>/ 8EEn 8GG 8C	.	8g^>\ 8b- 8cc 8een	.	.	.	.	.
8r	.	8r	.	.	.	.	.
=58	=58	=58	=58	=58	=58	=58	=58
8FF'>/L 8F	.	4.a\ 4.cc 4.ff	.	>	2ryy	.	.
8EE-'>/ 8E-	.	.	.	.	.	.	.
8DD'>/ 8D	.	.	.	.	.	.	.
8CC'>/J 8C	.	8r	.	]]	.	.	.
=59	=59	=59	=59	=59	=59	=59	=59
8BBB-/ 8BB-	.	4ff^<\ 4fff	.	.	2ryy	.	.
8r	.	.	.	.	.	.	.
8F\ 8B- 8d	.	8dd\L 8ddd	.	.	.	.	.
8r	.	16r	.	.	.	.	.
.	.	16dd\Jk 16ddd	.	.	.	.	.
=60	=60	=60	=60	=60	=60	=60	=60
8F\ 8B- 8d	.	4.dd^<\ 4.ddd	.	.	2ryy	.	.
8r	.	.	.	.	.	.	.
8F\ 8B- 8d	.	.	.	.	.	.	.
8r	.	8dd\ 8ddd	.	.	.	.	.
=61	=61	=61	=61	=61	=61	=61	=61
8FF:/ 8AA: 8C: 8F:	.	8ff\L 8fff	.	.	2ryy	.	.
8r	.	8ee-\J 8eee-	.	.	.	.	.
8F\ 8A 8c	.	8dd\L 8ddd	.	.	.	.	.
8r	.	8ee-\J 8eee-	.	.	.	.	.
!LO:LB:g=original	!	!LO:LB:g=original	!	!	!LO:LB:g=original	!	!
=62	=62	=62	=62	=62	=62	=62	=62
8F\ 8A 8c	.	4cc^<\ 4ccc	.	.	2ryy	.	.
8r	.	.	.	.	.	.	.
8F\ 8A 8c	.	4r	.	.	.	.	.
8r	.	.	.	.	.	.	.
=63	=63	=63	=63	=63	=63	=63	=63
8FF/ 8AA 8C 8F	.	4a^>\ 4aa	.	.	2ryy	.	.
8r	.	.	.	.	.	.	.
8F\ 8A 8c	.	8.gg\L 8.ggg	.	.	.	.	.
8r	.	.	.	.	.	.	.
.	.	16gg\Jk 16ggg	.	.	.	.	.
=64	=64	=64	=64	=64	=64	=64	=64
8F\ 8A 8c	.	8ff\ 8fff	.	.	2ryy	.	.
8r	.	8r	.	.	.	.	.
8F\ 8A 8c	.	8a\ 8aa	.	.	.	.	.
8r	.	8r	.	.	.	.	.
=65	=65	=65	=65	=65	=65	=65	=65
8BBB-/ 8BB-	.	8b-\ 8bb-	.	.	2ryy	.	.
8r	.	8r	.	.	.	.	.
8BB-^>^>\ 8D 8F 8B-	.	16b-'>/LL	.	ff	.	.	.
.	.	16g'>/	.	.	.	.	.
8r	.	16b-'>/	.	.	.	.	.
.	.	16dd'>/JJ	.	.	.	.	.
=66	=66	=66	=66	=66	=66	=66	=66
!	!	!LO:TX:a:B:t=1|mo	!	!	!	!	!
8BB-^>^>\ 8D 8F 8B-	.	8b-\	.	.	2ryy	.	.
8r	.	8r	.	.	.	.	.
4r	.	8f^</L 8a	.	ff	.	.	.
.	.	8g^</J 8b-	.	.	.	.	.
=67:|!	=67:|!	=67:|!	=67:|!	=67:|!	=67:|!	=67:|!	=67:|!
!	!	!LO:TX:a:B:t=2|do	!	!	!	!	!
4BB-\ 4D 4F 4B-	.	4b-\	.	.	2ryy	.	.
4r	.	4r	.	.	.	.	.
!LO:LB:g=original	!	!LO:LB:g=original	!	!	!LO:LB:g=original	!	!
==68	==68	==68	==68	==68	==68	==68	==68
*M4/4	*	*M4/4	*	*	*M4/4	*	*
*met(c)	*	*met(c)	*	*	*met(c)	*	*
!	!	!LO:TX:a:B:t=Lento.	!	!	!	!	!
!	!	!LO:TX:B:a:t=CODA.	!	!	!	!	!
(8qDD/ 8qFF#X 8qAA 8qD	.	(8qf/ 8qa 8qdd	.	ff	.	.	.
2DD/) 2FF# 2AA 2D	.	2f/) 2a 2dd	.	.	1ryy	.	.
*tuplet	*	*tuplet	*	*	*	*	*
12D\L	.	12d/L	.	<	.	.	.
12F'>\	.	12f'>/	.	.	.	.	.
12A'>\J	.	12a'>/J	.	.	.	.	.
12d'>\L	.	12dd'>\L	.	.	.	.	.
12f\	.	12ff'>\	.	.	.	.	.
12a'>\J	.	12aa\J	.	[[	.	.	.
=69	=69	=69	=69	=69	=69	=69	=69
2.dd\	.	2.ddd\	.	>	1ryy	.	.
4r	.	4r	.	]]	.	.	.
=70!|:	=70!|:	=70!|:	=70!|:	=70!|:	=70!|:	=70!|:	=70!|:
4GGG:\ 4BBB-: 4DD: 4GG:	.	4B-<^>/	.	f	1ryy	.	.
!	!	!LO:TX:B:a:t=m. g._	!	!	!	!	!
4d>/ 4g> 4b->	.	8.B-<^</L	.	p >	.	.	.
.	.	16A</Jk	.	.	.	.	.
4BBB-\ 4BB-	.	4.G</	.	p	.	.	.
4d>/ 4g> 4b->	.	.	.	.	.	.	.
.	.	8G</	.	]	.	.	.
!LO:LB:g=original	!	!LO:LB:g=original	!	!	!LO:LB:g=original	!	!
=71	=71	=71	=71	=71	=71	=71	=71
*	*	*	*below	*	*	*	*
4DD\ 4D	3	8B-</L	.	.	1ryy	.	.
.	.	8A</J	.	.	.	.	.
4f#X>/ 4a> 4cc>	1	8En</L	.	.	.	.	.
.	2	8F#X</J	.	.	.	.	.
4GGG:\ 4BBB-: 4DD: 4GG:	.	4G<^>/	.	.	.	.	.
8d>/ 8g> 8b->	.	8D</	.	.	.	.	.
8r	.	8r	.	.	.	.	.
=72	=72	=72	=72	=72	=72	=72	=72
4GGG\ 4GG	.	4D</	.	p	1ryy	.	.
4d>/ 4g> 4b->	2	8G</L	.	.	.	.	.
.	3	8A</J	.	.	.	.	.
4GGG:\ 4BBB-: 4DD: 4GG:	4	4.B-<^</	.	.	.	.	.
8d>/ 8g> 8b->	.	.	.	.	.	.	.
8r>	.	8B-</	.	.	.	.	.
=73	=73	=73	=73	=73	=73	=73	=73
*	*below	*	*	*	*	*	*
8DD:\L 8FF#X: 8AA: 8D:	.	8c</L	3	.	1ryy	.	.
8F#X\J	3	16d</L	4	.	.	.	.
.	.	16c</JJ	.	.	.	.	.
8G\L	2	8B-</L	2	.	.	.	.
8A\J	1	8c</J	3	.	.	.	.
*clefF4	*	*	*	*	*	*	*
(8qAA/	.	.	.	.	.	.	.
*	*	*ped	*	*	*	*	*
2DD\) 2D 2F#X	.	2A</ 2d<	.	ff	.	.	.
=74	=74	=74	=74	=74	=74	=74	=74
4FF#X\ 4F#X	.	4d<^>/	.	.	1ryy	.	.
4f#X>/ 4a> 4cc>	.	8d</L	.	.	.	.	.
*	*above	*	*	*	*	*	*
.	1	8A</J	.	.	.	.	.
4GGG:\ 4BBB-: 4DD: 4GG:	3	4.B-</	.	.	.	.	.
8d>/ 8g> 8b->	1	.	.	.	.	.	.
8r	.	8G</	.	.	.	.	.
!LO:LB:g=original	!	!LO:LB:g=original	!	!	!LO:LB:g=original	!	!
=75	=75	=75	=75	=75	=75	=75	=75
4DD:\ 4FF#X: 4AA: 4D:	.	8F#X</L	.	.	1ryy	.	.
.	.	8A</J	.	.	.	.	.
4f#X>/ 4a> 4cc>	.	8.d<^</L	.	.	.	.	.
.	.	16c</Jk	.	.	.	.	.
4GGG\ 4GG	.	4c<^>/	.	.	.	.	.
8d>/ 8g> 8b->	.	8B-</	.	.	.	.	.
8r	.	8r	.	ff	.	.	.
=76	=76	=76	=76	=76	=76	=76	=76
4GGG/ 4GG	.	4G^>/ 4g	.	.	1ryy	.	.
8FF#X^>/L 8F#X	.	8A^>/L 8a	.	.	.	.	.
8FFn^>/J 8Fn	.	8Bn^>/J 8bn	.	.	.	.	.
4EE-/ 4E-	.	4c^>/ 4cc	.	.	.	.	.
4C^>\ 4E- 4G	.	4c^>/ 4cc	.	.	.	.	.
=77	=77	=77	=77	=77	=77	=77	=77
2GG/ 2BBn 2D 2F	.	8d/L 8dd	.	ff	1ryy	.	.
.	.	(16e-/L 16ee-	.	.	.	.	.
.	.	16d/JJ) 16dd	.	.	.	.	.
.	.	8c^>/L 8cc	.	.	.	.	.
.	.	8d^>/J 8dd	.	>	.	.	.
4r	.	(4f^>/ 4ff	.	.	.	.	.
4C\ 4E- 4G	.	8e-/) 8ee-	.	.	.	.	.
.	.	8r	.	]	.	.	.
=78	=78	=78	=78	=78	=78	=78	=78
4GGG\ 4GG	.	4d</	.	.	1ryy	.	.
4g>/ 4b->	.	8.e-</L	.	p	.	.	.
.	.	16d</Jk	.	.	.	.	.
(8qBBB-/	.	.	.	.	.	.	.
4BB-\)	.	4.G</	.	.	.	.	.
8g>/ 8b->	.	.	.	.	.	.	.
8r>	.	8G</	.	.	.	.	.
!LO:LB:g=original	!	!LO:LB:g=original	!	!	!LO:LB:g=original	!	!
=79	=79	=79	=79	=79	=79	=79	=79
4DD\ 4D	1	8B-</L	.	.	1ryy	.	.
.	.	8A</J	.	.	.	.	.
4f#X>/ 4a> 4cc>	1	8En</L	.	p	.	.	.
.	2	8F#X</J	.	.	.	.	.
4GGG\ 4GG	3	4.G</	.	p	.	.	.
8d>/ 8g> 8b->	.	.	.	.	.	.	.
8r	.	8r	.	ff	.	.	.
=80	=80	=80	=80	=80	=80	=80	=80
4GGG^>/ 4GG	.	4G^>/ 4g	.	.	1ryy	.	.
8FF#X^>/L 8F#X	.	8A^>/L 8a	.	.	.	.	.
8FFn^>/J 8Fn	.	(8Bn^>/J 8bn	.	.	.	.	.
4EE-^>/ 4E-	.	4c^>/) 4cc	.	.	.	.	.
4C^>\ 4E- 4G	.	4c^>/ 4cc	.	.	.	.	.
=81	=81	=81	=81	=81	=81	=81	=81
2GG/ 2BBn 2D 2F	.	8d/L 8dd	.	.	1ryy	.	.
.	.	(16e-/L 16ee-	.	ff	.	.	.
.	.	16d/JJ) 16dd	.	.	.	.	.
.	.	8c^>/L 8cc	.	.	.	.	.
.	.	8d^>/J 8dd	.	>	.	.	.
4r	.	(4f/ 4ff	.	.	.	.	.
4C\ 4E- 4G	.	8e-/) 8ee-	.	.	.	.	.
.	.	8r	.	]	.	.	.
=82	=82	=82	=82	=82	=82	=82	=82
4GGG\ 4GG	3	4d</	.	.	1ryy	.	.
4g>/ 4b->	4	8.e-</L	.	p	.	.	.
.	3	16d</Jk	.	.	.	.	.
(8qBBB-/	.	.	.	.	.	.	.
4BB-^>\)	1	4.G</	.	.	.	.	.
8g>/ 8b->	.	.	.	.	.	.	.
8r>	.	8G</	.	.	.	.	.
!LO:LB:g=original	!	!LO:LB:g=original	!	!	!LO:LB:g=original	!	!
=83	=83	=83	=83	=83	=83	=83	=83
4DD:\ 4FF#X: 4AA: 4D:	2	8B-</L	.	.	1ryy	.	.
.	.	8A</J	.	.	.	.	.
4f#X>/ 4a> 4cc>	1	8En</L	.	p	.	.	.
.	2	8F#X</J	.	.	.	.	.
2GG\ 2BB- 2D	3	2G</	.	p	.	.	.
=84	=84	=84	=84	=84	=84	=84	=84
!	!	!LO:TX:a:B:t=1|mo	!	!	!	!	!
4DD/ 4D	.	4d/	.	ff	1ryy	.	.
8.EE-/L 8.E-	.	(8.e-/L	.	.	.	.	.
16DD/Jk 16D	.	16d/Jk)	.	.	.	.	.
2GG/ 2G	.	4.b-^>\	.	.	.	.	.
.	.	8g/	.	.	.	.	.
=85	=85	=85	=85	=85	=85	=85	=85
4DD/ 4D	.	(8b-/L	.	p	1ryy	.	.
.	.	8a/	.	.	.	.	.
4D\ 4F#X 4A 4c	.	8en/	.	.	.	.	.
.	.	8f#X/J)	.	p	.	.	.
!	!	!LO:TX:b:i:t=rallen.	!	!	!	!	!
4.GG/ 4.G	.	8B-/L 8d 8g	.	.	.	.	.
.	.	8c/ 8e-X	.	.	.	.	.
.	.	8B-/ 8d	.	.	.	.	.
8r	.	8A/J 8c	.	.	.	.	.
!LO:LB:g=original	!	!LO:LB:g=original	!	!	!LO:LB:g=original	!	!
=86:|!	=86:|!	=86:|!	=86:|!	=86:|!	=86:|!	=86:|!	=86:|!
!	!	!LO:TX:a:B:t=2|do	!	!	!	!	!
4DD/ 4D	.	8b-/L	.	.	1ryy	.	.
.	.	8a/	.	.	.	.	.
4D\ 4F#X 4A 4c	.	8en/	.	.	.	.	.
.	.	8f#X/J	.	.	.	.	.
2GG/ 2G	.	2B-/ 2d 2g	.	p	.	.	.
=87	=87	=87	=87	=87	=87	=87	=87
!	!	!LO:TX:a:B:t=Presto.	!	!	!	!	!
16r	.	16r	.	ff	1ryy	.	.
16G\LL 16g	.	16gg\LL 16ggg	.	.	.	.	.
16r	.	16r	.	.	.	.	.
16E-\ 16e-	.	16ee-\ 16eee-	.	.	.	.	.
16r	.	16r	.	.	.	.	.
16D\ 16d	.	16dd\ 16ddd	.	.	.	.	.
16r	.	16r	.	.	.	.	.
16BB-\JJ 16B-	.	16b-\JJ 16bb-	.	.	.	.	.
16r	.	16r	.	.	.	.	.
16GG/LL 16G	.	16g/LL 16gg	.	.	.	.	.
16r	.	16r	.	.	.	.	.
16EE-/ 16E-	.	16e-/ 16ee-	.	.	.	.	.
16r	.	16r	.	.	.	.	.
16DD/ 16D	.	16d/ 16dd	.	.	.	.	.
16r	.	16r	.	.	.	.	.
16BBB-/JJ 16BB-	.	16B-/JJ 16b-	.	.	.	.	.
=88	=88	=88	=88	=88	=88	=88	=88
2GGG/ 2GG	.	2G/ 2g	.	.	1ryy	.	.
2G\ 2B- 2d 2g	.	2b-^>\ 2dd 2gg	.	ff	.	.	.
=89	=89	=89	=89	=89	=89	=89	=89
!LO:TX:b:t=Fine.	!	!	!	!	!	!	!
*	*	*ped	*	*	*	*	*
8qGG;/ 8qBB- 8qD 8qG	.	(8qB-;/ 8qd 8qg	.	.	.	.	.
2GG;\ 2BB- 2D 2G	.	2B-^;/) 2d 2g	.	.	2ryy	.	.
==	==	==	==	==	==	==	==
*-	*-	*-	*-	*-	*-	*-	*-
!!!RDF**kern: > = above
!!!RDF**kern: < = below
!!!system-decoration: s1[(s2,s3)]
!!!ENC: Filip Voros
!!!END: 2022-07-28
!!!ENC: Julita Ruszuk
!!!END: 2022-09-02!!!YEC: Copyright 2022 Narodowy Instytut Fryderyka Chopina (https://polishscores.org)
!!!YEM: Licence CC BY 4.0 (https://creativecommons.org/licenses/by/4.0)
